icon/fa/house-chimney-crack.svg

<svg xmlns="http://www.w3.org/2000/svg" viewBox="0 0 576 512"><!--! Font Awesome Free 6.1.2 by @fontawesome - https://fontawesome.com License - https://fontawesome.com/license/free (Icons: CC BY 4.0, Fonts: SIL OFL 1.1, Code: MIT License) Copyright 2022 Fonticons, Inc.--><path d="M575.8 255.5c0 18-15 32.1-32 32.1h-32l.7 160.1c.1 35.5-28.6 64.3-64 64.3H326.4L288 448l80.8-67.3c7.8-6.6 7.7-18.6-.3-24.9l-117.9-92.6c-15.5-11.5-33.8 6.9-22.8 22L288 368l-85.5 71.2c-6 5.1-8.4 12.9-3.4 20.6l31.3 52.2H128.1c-35.35 0-64.01-28.7-64.01-64V287.6H32.05C14.02 287.6 0 273.5 0 255.5c0-9 3.004-17 10.01-24L266.4 8.016c7-7.014 15-8.016 22-8.016s15 2.004 21.1 7.014L416 100.7V64c0-17.67 14.3-32 32-32h32c17.7 0 32 14.33 32 32v121l52.8 46.5c8 7 12.1 15 11 24z"/></svg>

<svg xmlns="http://www.w3.org/2000/svg" viewBox="0 0 576 512" height="1em" width="1em">
<!--! Font Awesome Free 6.1.2 by @fontawesome - https://fontawesome.com License - https://fontawesome.com/license/free (Icons: CC BY 4.0, Fonts: SIL OFL 1.1, Code: MIT License) Copyright 2022 Fonticons, Inc.-->
  <path d="M575.8 255.5C575.8 273.5 560.8 287.6 543.8 287.6H511.8L512.5 447.7C512.6 483.2 483.9 512 448.5 512H326.4L288 448L368.8 380.7C376.6 374.1 376.5 362.1 368.5 355.8L250.6 263.2C235.1 251.7 216.8 270.1 227.8 285.2L288 368L202.5 439.2C196.5 444.3 194.1 452.1 199.1 459.8L230.4 512H128.1C92.75 512 64.09 483.3 64.09 448V287.6H32.05C14.02 287.6 0 273.5 0 255.5C0 246.5 3.004 238.5 10.01 231.5L266.4 8.016C273.4 1.002 281.4 0 288.4 0C295.4 0 303.4 2.004 309.5 7.014L416 100.7V64C416 46.33 430.3 32 448 32H480C497.7 32 512 46.33 512 64V185L564.8 231.5C572.8 238.5 576.9 246.5 575.8 255.5L575.8 255.5z"/>
</svg>
